rospo-light/16x16/devices/drive-multidisk.svg

<svg height="22" viewBox="0 0 16 16" width="22" xmlns="http://www.w3.org/2000/svg"><path d="m3.0539772 2.9090908c-.483491 0-.8721591.4166335-.8721591.934659v2.4943185c0 .5180261.3886681.934659.8721591.934659h.5823864v.7272728h-.5823864c-.483491 0-.8721591.416633-.8721591.934659v2.4943179c0 .518027.3886681.934659.8721591.934659h.5823864v.727273h.7272727v-.727273h7.2727267v.727273h.727273v-.727273h.582386c.483491 0 .87216-.416632.87216-.934659v-2.4943179c0-.518026-.388669-.934659-.87216-.934659h-.582386v-.7272728h.582386c.483491 0 .87216-.4166329.87216-.934659v-2.4943185c0-.5180255-.388669-.934659-.87216-.934659zm8.5823858 1.4545455a.72727273.72727273 0 0 1  .727273.7272727.72727273.72727273 0 0 1 -.727273.7272728.72727273.72727273 0 0 1 -.727272-.7272728.72727273.72727273 0 0 1  .727272-.7272727zm-7.2727267 2.909091h7.2727267v.7272728h-7.2727267zm7.2727267 2.1818178a.72727273.72727273 0 0 1  .727273.7272729.72727273.72727273 0 0 1 -.727273.727273.72727273.72727273 0 0 1 -.727272-.727273.72727273.72727273 0 0 1  .727272-.7272729z" fill="#5c616c" stroke-width=".727273"/></svg>

<?xml version="1.0" encoding="UTF-8" standalone="no"?>
<svg
   xmlns:dc="http://purl.org/dc/elements/1.1/"
   xmlns:cc="http://creativecommons.org/ns#"
   xmlns:rdf="http://www.w3.org/1999/02/22-rdf-syntax-ns#"
   xmlns:svg="http://www.w3.org/2000/svg"
   xmlns="http://www.w3.org/2000/svg"
   xmlns:sodipodi="http://sodipodi.sourceforge.net/DTD/sodipodi-0.dtd"
   xmlns:inkscape="http://www.inkscape.org/namespaces/inkscape"
   width="22"
   height="22"
   version="1.1"
   viewBox="0 0 16 16"
   id="svg7"
   sodipodi:docname="drive-multidisk.svg"
   inkscape:version="0.92.1 r">
  <metadata
     id="metadata11">
    <rdf:RDF>
      <cc:Work
         rdf:about="">
        <dc:format>image/svg+xml</dc:format>
        <dc:type
           rdf:resource="http://purl.org/dc/dcmitype/StillImage" />
      </cc:Work>
    </rdf:RDF>
  </metadata>
  <sodipodi:namedview
     pagecolor="#ffffff"
     bordercolor="#666666"
     borderopacity="1"
     objecttolerance="10"
     gridtolerance="10"
     guidetolerance="10"
     inkscape:pageopacity="0"
     inkscape:pageshadow="2"
     inkscape:window-width="769"
     inkscape:window-height="480"
     id="namedview9"
     showgrid="false"
     inkscape:zoom="10.727273"
     inkscape:cx="11"
     inkscape:cy="11"
     inkscape:window-x="0"
     inkscape:window-y="0"
     inkscape:window-maximized="0"
     inkscape:current-layer="svg7" />
  <defs
     id="defs3">
    <style
       id="current-color-scheme"
       type="text/css">
   .ColorScheme-Text { color:#5c616c; } .ColorScheme-Highlight { color:#5294e2; }
  </style>
  </defs>
  <path
     style="color:#5c616c;fill:currentColor;stroke-width:0.72727275"
     class="ColorScheme-Text"
     d="m 3.0539772,2.9090908 c -0.483491,0 -0.8721591,0.4166335 -0.8721591,0.934659 v 2.4943185 c 0,0.5180261 0.3886681,0.934659 0.8721591,0.934659 H 3.6363636 V 8.0000001 H 3.0539772 c -0.483491,0 -0.8721591,0.416633 -0.8721591,0.934659 v 2.4943179 c 0,0.518027 0.3886681,0.934659 0.8721591,0.934659 h 0.5823864 v 0.727273 h 0.7272727 v -0.727273 h 7.2727267 v 0.727273 h 0.727273 v -0.727273 h 0.582386 c 0.483491,0 0.87216,-0.416632 0.87216,-0.934659 V 8.9346591 c 0,-0.518026 -0.388669,-0.934659 -0.87216,-0.934659 H 12.363636 V 7.2727273 h 0.582386 c 0.483491,0 0.87216,-0.4166329 0.87216,-0.934659 V 3.8437498 c 0,-0.5180255 -0.388669,-0.934659 -0.87216,-0.934659 z M 11.636363,4.3636363 A 0.72727273,0.72727273 0 0 1 12.363636,5.090909 0.72727273,0.72727273 0 0 1 11.636363,5.8181818 0.72727273,0.72727273 0 0 1 10.909091,5.090909 0.72727273,0.72727273 0 0 1 11.636363,4.3636363 Z M 4.3636363,7.2727273 H 11.636363 V 8.0000001 H 4.3636363 Z m 7.2727267,2.1818178 a 0.72727273,0.72727273 0 0 1 0.727273,0.7272729 0.72727273,0.72727273 0 0 1 -0.727273,0.727273 0.72727273,0.72727273 0 0 1 -0.727272,-0.727273 0.72727273,0.72727273 0 0 1 0.727272,-0.7272729 z"
     id="path5"
     inkscape:connector-curvature="0" />
</svg>
